X:1
T:Channels Only
T:Channels Only
T:Ada Rose Gibbs
T:Mary E. Maxwell, 1900
T:Public Domain Courtesy of the Cyber Hymnal™
T:Public Domain Courtesy of the Cyber Hymnal™
C:Ada Rose Gibbs
Z:Public Domain
Z:Courtesy of the Cyber Hymnal™
%%score ( 1 2 ) ( 3 4 )
L:1/8
Q:1/4=105
M:3/4
K:Ab
V:1 treble 
V:2 treble 
V:3 bass 
V:4 bass 
V:1
 E[EA] | [Ac]2 [EA]2 [DF][FA] | [DF]2 [CE]2 [CE][CA] | [EG]3 [EA] [GB][Gc] | [GB]4 E[EA] | %5
w: 1.~How I|praise Thee, pre- cious|Sav- ior, That Thy|love laid hold of|me; Thou hast|
w: 2.~Just a|chan- nel full of|bless- ing, To the|thirst- y hearts a-|round; To tell|
w: 3.~Emp- tied|that Thou should- est|fill me, A clean|ves- sel in Thy|hand; With no|
w: 4.~Wit- ness-|ing Thy power to|save me, Set- ting|free from self and|sin; Thou who|
w: 5.~Je- sus,|fill now with Thy|Spir- it Hearts that|full sur- ren- der|know; That the|
 [Ac]2 [EA]2 [DF][FA] | [DF]2 [CE]2 [CE][CA] | [EG]3 [EA] [GB][Gc] | A4 ||"^Refrain" [Ac][Ad] | %10
w: saved and cleansed and|filled me That I|might Thy chan- nel|be.||
w: out Thy full sal-|va- tion All Thy|lov- ing mess- age|sound.||
w: power but as Thou|giv- est Gra- cious-|ly with each com-|mand.|Chan- nels|
w: bought- est to pos-|sess me, In Thy|full- ness, Lord, come|in.||
w: streams of liv- ing|wa- ter From our|in- ner self may|flow.||
 B2 [GB]2 [GB][Gc] | [EA]2 [EA]2 [EA][EG] | [DF]2 [DF]2 [FA][DF] | E4 [Ac][Ad] | %14
w: ||||
w: ||||
w: on- ly, bless- èd|Mas- ter, But with|all Thy won- drous|power Flow- ing|
w: ||||
w: ||||
 [AB]2 [GB]2 [GB][Gc] | [EA]2 [EA]2 [GB][Ac] | [Fd]2 [DF]2 [EG]>[EA] | [EA]4 |] %18
w: ||||
w: ||||
w: through us, Thou canst|use us Ev- ery|day and ev- ery|hour.|
w: ||||
w: ||||
V:2
 E x | x6 | x6 | x6 | x4 E x | x6 | x6 | x6 | A4 || x2 | A2 x4 | x6 | x6 | (D2 C2) x2 | x6 | x6 | %16
 x6 | x4 |] %18
V:3
 [A,C][A,C] | [A,E]2 [A,C]2 [D,A,][D,A,] | [A,,A,]2 [A,,A,]2 [A,,A,][A,,A,] | %3
 [E,B,]3 [E,C] [E,D][E,E] | [E,D]4 [A,C][A,C] | [A,E]2 [A,C]2 [D,A,][D,A,] | %6
 [A,,A,]2 [A,,A,]2 [A,,A,][A,,A,] | [E,B,]3 [E,C] [E,D][E,D] | [A,C]4 || [A,E][A,F] | %10
 [E,E]2 [E,E]2 [E,D][E,D] | [A,D]2 [A,C]2 [A,C][A,C] | [D,D]2 [D,A,]2 [D,D][D,A,] | %13
 A,4 [A,E][A,F] | [E,E]2 [E,E]2 [E,D][E,D] | [A,D]2 [A,C]2 [E,E][A,E] | [D,D]2 [D,D]2 [E,D]>[E,D] | %17
 [A,,C]4 |] %18
V:4
 x2 | x6 | x6 | x6 | x6 | x6 | x6 | x6 | x4 || x2 | x6 | x6 | x6 | A,4 x2 | x6 | x6 | x6 | x4 |] %18

